; generated by SuperSlicer 2.3.56 on 2021-08-17 at 09:12:38 UTC


;
;

;
;
; TODO: check the size of the extruder and the y-bar clearance. Optimize & test supports.

; external perimeters extrusion width = 0.42mm
; perimeters extrusion width = 0.44mm
; infill extrusion width = 0.44mm
; solid infill extrusion width = 0.44mm
; top infill extrusion width = 0.44mm
; first layer extrusion width = 0.56mm

; object:{"name":"ringing_tower","id":"ringing_tower.stl id:0 copy 0","object_center":[115.918768,158.508079,0.000000],"boundingbox_center":[115.918768,158.508079,30.000000],"boundingbox_size":[120.000000,120.000000,60.000000]}
; plater:{"center":[115.918768,158.508079,0.000000],"boundingbox_center":[115.918768,158.508079,30.000000],"boundingbox_size":[120.000000,120.000000,60.000000]}

;TYPE:Custom
;EXTRUDER=215 
;BED=55 
;CHAMBER=15
M140 S55 
M190 S55
M104 S215  T0
M109 S215 T0
print_start
M107
G21 ; set units to millimeters
G90 ; use absolute coordinates
M83 ; use relative distances for extrusion
;LAYER_CHANGE
;Z:0.2
;HEIGHT:0.2
;BEFORE_LAYER_CHANGE
;0.2


G1 Z0.200000 F18000.000
;AFTER_LAYER_CHANGE
;0.2
G1 E-0.75000 F3000.000
G1 Z1.000000 F18000.000
G1 X53.577 Y95.077
G1 Z0.200000
G1 E0.75000 F1800.000
;TYPE:Skirt
;WIDTH:0.56
M204 S1000
G1 X54.319 Y94.666 E0.03647
G1 X55.128 Y94.409 E0.03647
G1 X55.971 Y94.316 E0.03647
G1 X175.824 Y94.315 E5.15312
G1 X176.552 Y94.379 E0.03143
G1 X177.264 Y94.566 E0.03165
G1 X177.929 Y94.870 E0.03143
G1 X178.533 Y95.282 E0.03143
G1 X179.061 Y95.795 E0.03165
G1 X179.491 Y96.386 E0.03143
G1 X179.815 Y97.041 E0.03143
G1 X180.024 Y97.747 E0.03165
G1 X180.111 Y98.576 E0.03582
G1 X180.092 Y106.817 E0.35434
G1 X179.963 Y107.526 E0.03099
G1 X179.718 Y108.204 E0.03099
G1 X179.362 Y108.831 E0.03099
G1 X178.907 Y109.390 E0.03099
G1 X66.676 Y221.612 E6.82390
G1 X65.548 Y222.337 E0.05764
G1 X64.251 Y222.679 E0.05764
G1 X55.983 Y222.701 E0.35551
G1 X55.175 Y222.617 E0.03494
G1 X54.392 Y222.381 E0.03516
G1 X53.672 Y222.003 E0.03494
G1 X53.037 Y221.496 E0.03494
G1 X52.482 Y220.841 E0.03691
G1 X52.069 Y220.089 E0.03691
G1 X51.813 Y219.269 E0.03691
G1 X51.726 Y218.415 E0.03691
G1 X51.726 Y98.567 E5.15290
G1 X51.811 Y97.759 E0.03494
G1 X52.046 Y96.981 E0.03494
G1 X52.424 Y96.262 E0.03494
G1 X52.931 Y95.626 E0.03494
G1 X53.532 Y95.116 E0.03389
M204 S1500
G1 X53.865 Y95.509 F18000.000
G1 F1800.000
M204 S1000
G1 X53.877 Y95.499 E0.00069
G1 X54.532 Y95.138 E0.03215
G1 X55.244 Y94.913 E0.03215
G1 X55.983 Y94.833 E0.03194
G1 X175.824 Y94.832 E5.15259
G1 X176.473 Y94.890 E0.02804
G1 X177.103 Y95.058 E0.02804
G1 X178.227 Y95.700 E0.05566
G1 X179.068 Y96.685 E0.05566
G1 X179.350 Y97.272 E0.02804
G1 X179.527 Y97.900 E0.02804
G1 X179.594 Y98.587 E0.02968
G1 X179.579 Y106.744 E0.35071
G1 X179.251 Y107.981 E0.05505
G1 X178.531 Y109.034 E0.05484
G1 X66.339 Y221.220 E6.82161
G1 X65.329 Y221.868 E0.05159
G1 X64.167 Y222.168 E0.05159
G1 X55.990 Y222.184 E0.35159
G1 X55.280 Y222.111 E0.03071
G1 X54.591 Y221.903 E0.03091
G1 X53.954 Y221.569 E0.03091
G1 X53.393 Y221.121 E0.03091
G1 X52.907 Y220.546 E0.03235
G1 X52.543 Y219.882 E0.03256
G1 X52.319 Y219.159 E0.03256
G1 X52.243 Y218.408 E0.03244
G1 X52.243 Y98.574 E5.15229
G1 X52.317 Y97.864 E0.03071
G1 X52.525 Y97.176 E0.03091
G1 X52.860 Y96.540 E0.03091
G1 X53.306 Y95.982 E0.03071
G1 X53.819 Y95.548 E0.02887
M204 S1500
G1 X54.151 Y95.942 F18000.000
G1 F1800.000
M204 S1000
G1 X54.174 Y95.922 E0.00131
G1 X54.740 Y95.611 E0.02776
G1 X55.356 Y95.418 E0.02776
G1 X55.993 Y95.350 E0.02757
G1 X175.823 Y95.350 E5.15213
G1 X176.937 Y95.548 E0.04865
G1 X177.916 Y96.114 E0.04865
G1 X178.643 Y96.982 E0.04865
G1 X179.028 Y98.046 E0.04865
G1 X179.066 Y106.675 E0.37104
G1 X178.785 Y107.758 E0.04808
G1 X178.154 Y108.681 E0.04808
G1 X66.000 Y220.829 E6.81929
G1 X65.111 Y221.400 E0.04543
G1 X64.090 Y221.655 E0.04524
G1 X55.996 Y221.667 E0.34798
G1 X55.376 Y221.603 E0.02680
G1 X54.780 Y221.422 E0.02680
G1 X54.228 Y221.131 E0.02680
G1 X53.746 Y220.743 E0.02661
G1 X53.328 Y220.246 E0.02795
G1 X53.017 Y219.675 E0.02795
G1 X52.825 Y219.054 E0.02795
G1 X52.760 Y218.408 E0.02790
G1 X52.760 Y98.581 E5.15199
G1 X52.825 Y97.961 E0.02680
G1 X53.005 Y97.369 E0.02661
G1 X53.296 Y96.818 E0.02680
G1 X53.684 Y96.335 E0.02661
G1 X54.105 Y95.980 E0.02367
; INIT printing object ringing_tower.stl id:0 copy 0
G1 E-0.75000 F3000.000
M204 S1500
G1 Z0.600000 F18000.000
; printing object ringing_tower.stl id:0 copy 0
G1 X56.299 Y98.888
G1 Z0.200000
G1 E0.75000 F1800.000
;TYPE:External perimeter
M204 S1000
G1 X88.620 Y98.888 E1.38966
G1 X88.620 Y98.888 E0.00001
G1 X85.405 Y103.479 E0.24096
G1 X85.618 Y103.888 E0.01983
G1 X92.531 Y103.888 E0.29723
G1 X92.744 Y103.479 E0.01983
G1 X89.530 Y98.888 E0.24096
G1 X89.530 Y98.888 E0.00001
G1 X128.300 Y98.888 E1.66693
G1 X131.801 Y103.888 E0.26244
G1 X139.697 Y103.888 E0.33948
G1 X143.198 Y98.888 E0.26244
G1 X175.539 Y98.888 E1.39051
G1 X175.539 Y106.128 E0.31129
G1 X124.076 Y106.128 E2.21265
G1 X122.576 Y104.628 E0.09121
G1 X117.261 Y104.628 E0.22851
G1 X115.761 Y106.128 E0.09121
G1 X63.539 Y106.128 E2.24533
G1 X63.539 Y140.696 E1.48626
G1 X62.039 Y142.423 E0.09835
G1 X62.039 Y148.464 E0.25973
G1 X63.539 Y150.191 E0.09835
G1 X63.539 Y174.825 E1.05914
G1 X62.039 Y176.552 E0.09835
G1 X62.039 Y182.593 E0.25973
G1 X63.539 Y184.320 E0.09835
G1 X63.539 Y218.128 E1.45359
G1 X56.299 Y218.128 E0.31129
G1 X56.299 Y185.807 E1.38966
G1 X56.299 Y185.807 E0.00001
G1 X60.890 Y189.021 E0.24096
G1 X61.299 Y188.808 E0.01983
G1 X61.299 Y181.895 E0.29723
G1 X60.890 Y181.682 E0.01983
G1 X56.299 Y184.897 E0.24096
G1 X56.299 Y184.897 E0.00001
G1 X56.299 Y146.127 E1.66693
G1 X61.299 Y142.626 E0.26244
G1 X61.299 Y134.730 E0.33948
G1 X56.299 Y131.229 E0.26244
G1 X56.299 Y98.948 E1.38793
G1 E-0.75000 F3000.000
M204 S1500
G1 X63.358 Y185.157 F18000.000
G1 E0.75000 F1800.000
;TYPE:Solid infill
;WIDTH:0.56207
M204 S1000
G1 X61.712 Y183.512 E0.10042
G1 X61.712 Y184.243 E0.03156
G1 X63.125 Y185.656 E0.08622
G1 X63.125 Y186.387 E0.03156
G1 X61.712 Y184.974 E0.08622
G1 X61.712 Y185.705 E0.03156
G1 X63.125 Y187.118 E0.08622
G1 X63.125 Y187.849 E0.03156
G1 X61.712 Y186.437 E0.08622
G1 X61.712 Y187.168 E0.03156
G1 X63.125 Y188.581 E0.08622
G1 X63.125 Y189.312 E0.03156
G1 X61.712 Y187.899 E0.08622
G1 X61.712 Y188.630 E0.03156
G1 X63.125 Y190.043 E0.08622
G1 X63.125 Y190.774 E0.03156
G1 X61.514 Y189.163 E0.09835
G1 X61.033 Y189.413 E0.02340
G1 X63.125 Y191.506 E0.12770
G1 X63.125 Y192.237 E0.03156
G1 X58.358 Y187.469 E0.29096
M204 S1500
G1 X56.480 Y186.323 F18000.000
G1 F1800.000
M204 S1000
G1 X63.125 Y192.968 E0.40556
G1 X63.125 Y193.699 E0.03156
G1 X56.712 Y187.287 E0.39136
G1 X56.712 Y188.018 E0.03156
G1 X63.125 Y194.431 E0.39136
G1 X63.125 Y195.162 E0.03156
G1 X56.712 Y188.749 E0.39136
G1 X56.712 Y189.481 E0.03156
G1 X63.125 Y195.893 E0.39136
G1 X63.125 Y196.624 E0.03156
G1 X56.712 Y190.212 E0.39136
G1 X56.712 Y190.943 E0.03156
G1 X63.125 Y197.356 E0.39136
G1 X63.125 Y198.087 E0.03156
G1 X56.712 Y191.674 E0.39136
G1 X56.712 Y192.406 E0.03156
G1 X63.125 Y198.818 E0.39136
G1 X63.125 Y199.549 E0.03156
G1 X56.712 Y193.137 E0.39136
G1 X56.712 Y193.868 E0.03156
G1 X63.125 Y200.281 E0.39136
G1 X63.125 Y201.012 E0.03156
G1 X56.712 Y194.599 E0.39136
G1 X56.712 Y195.331 E0.03156
G1 X63.125 Y201.743 E0.39136
G1 X63.125 Y202.475 E0.03156
G1 X56.712 Y196.062 E0.39136
G1 X56.712 Y196.793 E0.03156
G1 X63.125 Y203.206 E0.39136
G1 X63.125 Y203.937 E0.03156
G1 X56.712 Y197.524 E0.39136
G1 X56.712 Y198.256 E0.03156
G1 X63.125 Y204.668 E0.39136
G1 X63.125 Y205.400 E0.03156
G1 X56.712 Y198.987 E0.39136
G1 X56.712 Y199.718 E0.03156
G1 X63.125 Y206.131 E0.39136
G1 X63.125 Y206.862 E0.03156
G1 X56.712 Y200.449 E0.39136
G1 X56.712 Y201.181 E0.03156
G1 X63.125 Y207.593 E0.39136
G1 X63.125 Y208.325 E0.03156
G1 X56.712 Y201.912 E0.39136
G1 X56.712 Y202.643 E0.03156
G1 X63.125 Y209.056 E0.39136
G1 X63.125 Y209.787 E0.03156
G1 X56.712 Y203.374 E0.39136
G1 X56.712 Y204.106 E0.03156
G1 X63.125 Y210.518 E0.39136
G1 X63.125 Y211.250 E0.03156
G1 X56.712 Y204.837 E0.39136
G1 X56.712 Y205.568 E0.03156
G1 X63.125 Y211.981 E0.39136
G1 X63.125 Y212.712 E0.03156
G1 X56.712 Y206.299 E0.39136
G1 X56.712 Y207.031 E0.03156
G1 X63.125 Y213.443 E0.39136
G1 X63.125 Y214.175 E0.03156
G1 X56.712 Y207.762 E0.39136
G1 X56.712 Y208.493 E0.03156
G1 X63.125 Y214.906 E0.39136
G1 X63.125 Y215.637 E0.03156
G1 X56.712 Y209.225 E0.39136
G1 X56.712 Y209.956 E0.03156
G1 X63.125 Y216.368 E0.39136
G1 X63.125 Y217.100 E0.03156
G1 X56.712 Y210.687 E0.39136
G1 X56.712 Y211.418 E0.03156
G1 X63.009 Y217.714 E0.38425
G1 X62.277 Y217.714 E0.03156
G1 X56.712 Y212.150 E0.33962
G1 X56.712 Y212.881 E0.03156
G1 X61.546 Y217.714 E0.29499
G1 X60.815 Y217.714 E0.03156
G1 X56.712 Y213.612 E0.25036
G1 X56.712 Y214.343 E0.03156
G1 X60.083 Y217.714 E0.20573
G1 X59.352 Y217.714 E0.03156
G1 X56.712 Y215.075 E0.16111
G1 X56.712 Y215.806 E0.03156
G1 X58.621 Y217.714 E0.11648
G1 X57.890 Y217.714 E0.03156
G1 X56.712 Y216.537 E0.07185
G1 X56.712 Y217.268 E0.03156
G1 X57.391 Y217.947 E0.04142
G1 E-0.75000 F3000.000
M204 S1500
G1 X175.358 Y100.114 F18000.000
G1 E0.75000 F1800.000
M204 S1000
G1 X174.545 Y99.302 E0.04959
G1 X173.814 Y99.302 E0.03156
G1 X175.125 Y100.613 E0.08002
G1 X175.125 Y101.344 E0.03156
G1 X173.083 Y99.302 E0.12465
G1 X172.351 Y99.302 E0.03156
G1 X175.125 Y102.075 E0.16927
G1 X175.125 Y102.807 E0.03156
G1 X171.620 Y99.302 E0.21390
G1 X170.889 Y99.302 E0.03156
G1 X175.125 Y103.538 E0.25853
G1 X175.125 Y104.269 E0.03156
G1 X170.158 Y99.302 E0.30316
G1 X169.426 Y99.302 E0.03156
G1 X175.125 Y105.000 E0.34779
G1 X175.125 Y105.714 E0.03081
G1 X175.108 Y105.714 E0.00075
G1 X168.695 Y99.302 E0.39136
G1 X167.964 Y99.302 E0.03156
G1 X174.377 Y105.714 E0.39136
G1 X173.645 Y105.714 E0.03156
G1 X167.233 Y99.302 E0.39136
G1 X166.501 Y99.302 E0.03156
G1 X172.914 Y105.714 E0.39136
G1 X172.183 Y105.714 E0.03156
G1 X165.770 Y99.302 E0.39136
G1 X165.039 Y99.302 E0.03156
G1 X171.452 Y105.714 E0.39136
G1 X170.720 Y105.714 E0.03156
G1 X164.308 Y99.302 E0.39136
G1 X163.576 Y99.302 E0.03156
G1 X169.989 Y105.714 E0.39136
G1 X169.258 Y105.714 E0.03156
G1 X162.845 Y99.302 E0.39136
G1 X162.114 Y99.302 E0.03156
G1 X168.527 Y105.714 E0.39136
G1 X167.795 Y105.714 E0.03156
G1 X161.383 Y99.302 E0.39136
G1 X160.651 Y99.302 E0.03156
G1 X167.064 Y105.714 E0.39136
G1 X166.333 Y105.714 E0.03156
G1 X159.920 Y99.302 E0.39136
G1 X159.189 Y99.302 E0.03156
G1 X165.601 Y105.714 E0.39136
G1 X164.870 Y105.714 E0.03156
G1 X158.458 Y99.302 E0.39136
G1 X157.726 Y99.302 E0.03156
G1 X164.139 Y105.714 E0.39136
G1 X163.408 Y105.714 E0.03156
G1 X156.995 Y99.302 E0.39136
G1 X156.264 Y99.302 E0.03156
G1 X162.676 Y105.714 E0.39136
G1 X161.945 Y105.714 E0.03156
G1 X155.532 Y99.302 E0.39136
G1 X154.801 Y99.302 E0.03156
G1 X161.214 Y105.714 E0.39136
G1 X160.483 Y105.714 E0.03156
G1 X154.070 Y99.302 E0.39136
G1 X153.339 Y99.302 E0.03156
G1 X159.751 Y105.714 E0.39136
G1 X159.020 Y105.714 E0.03156
G1 X152.607 Y99.302 E0.39136
G1 X151.876 Y99.302 E0.03156
G1 X158.289 Y105.714 E0.39136
G1 X157.558 Y105.714 E0.03156
G1 X151.145 Y99.302 E0.39136
G1 X150.414 Y99.302 E0.03156
G1 X156.826 Y105.714 E0.39136
G1 X156.095 Y105.714 E0.03156
G1 X149.682 Y99.302 E0.39136
G1 X148.951 Y99.302 E0.03156
G1 X155.364 Y105.714 E0.39136
G1 X154.633 Y105.714 E0.03156
G1 X148.220 Y99.302 E0.39136
G1 X147.489 Y99.302 E0.03156
G1 X153.901 Y105.714 E0.39136
G1 X153.170 Y105.714 E0.03156
G1 X146.757 Y99.302 E0.39136
G1 X146.026 Y99.302 E0.03156
G1 X152.439 Y105.714 E0.39136
G1 X151.708 Y105.714 E0.03156
G1 X145.295 Y99.302 E0.39136
G1 X144.564 Y99.302 E0.03156
G1 X150.976 Y105.714 E0.39136
G1 X150.245 Y105.714 E0.03156
G1 X143.832 Y99.302 E0.39136
G1 X143.413 Y99.302 E0.01809
G1 X143.285 Y99.485 E0.00967
G1 X149.514 Y105.714 E0.38016
G1 X148.782 Y105.714 E0.03156
G1 X142.983 Y99.915 E0.35391
G1 X142.682 Y100.345 E0.02266
G1 X148.051 Y105.714 E0.32766
G1 X147.320 Y105.714 E0.03156
G1 X142.381 Y100.776 E0.30142
G1 X142.080 Y101.206 E0.02266
G1 X146.589 Y105.714 E0.27517
G1 X145.857 Y105.714 E0.03156
G1 X141.779 Y101.636 E0.24892
G1 X141.478 Y102.066 E0.02266
G1 X145.126 Y105.714 E0.22267
G1 X144.395 Y105.714 E0.03156
G1 X141.176 Y102.496 E0.19642
G1 X140.875 Y102.926 E0.02266
G1 X143.664 Y105.714 E0.17017
G1 X142.932 Y105.714 E0.03156
G1 X140.574 Y103.356 E0.14392
G1 X140.273 Y103.786 E0.02266
G1 X142.201 Y105.714 E0.11767
G1 X141.470 Y105.714 E0.03156
G1 X139.972 Y104.216 E0.09142
G1 X139.912 Y104.302 E0.00450
G1 X139.326 Y104.302 E0.02529
G1 X140.739 Y105.714 E0.08622
G1 X140.007 Y105.714 E0.03156
G1 X138.595 Y104.302 E0.08622
G1 X137.863 Y104.302 E0.03156
G1 X139.276 Y105.714 E0.08622
G1 X138.545 Y105.714 E0.03156
G1 X137.132 Y104.302 E0.08622
G1 X136.401 Y104.302 E0.03156
G1 X137.814 Y105.714 E0.08622
G1 X137.082 Y105.714 E0.03156
G1 X135.670 Y104.302 E0.08622
G1 X134.938 Y104.302 E0.03156
G1 X136.351 Y105.714 E0.08622
G1 X135.620 Y105.714 E0.03156
G1 X134.207 Y104.302 E0.08622
G1 X133.476 Y104.302 E0.03156
G1 X134.889 Y105.714 E0.08622
G1 X134.157 Y105.714 E0.03156
G1 X132.745 Y104.302 E0.08622
G1 X132.013 Y104.302 E0.03156
G1 X133.659 Y105.947 E0.10042
G1 E-0.75000 F3000.000
M204 S1500
G1 X129.827 Y101.384 F18000.000
G1 E0.75000 F1800.000
M204 S1000
G1 X127.745 Y99.302 E0.12707
G1 X127.013 Y99.302 E0.03156
G1 X131.535 Y103.823 E0.27593
M204 S1500
G1 X132.927 Y105.947 F18000.000
G1 F1800.000
M204 S1000
G1 X126.282 Y99.302 E0.40556
G1 X125.551 Y99.302 E0.03156
G1 X131.963 Y105.714 E0.39136
G1 X131.232 Y105.714 E0.03156
G1 X124.820 Y99.302 E0.39136
G1 X124.088 Y99.302 E0.03156
G1 X130.501 Y105.714 E0.39136
G1 X129.770 Y105.714 E0.03156
G1 X123.357 Y99.302 E0.39136
G1 X122.626 Y99.302 E0.03156
G1 X129.038 Y105.714 E0.39136
G1 X128.307 Y105.714 E0.03156
G1 X121.895 Y99.302 E0.39136
G1 X121.163 Y99.302 E0.03156
G1 X127.576 Y105.714 E0.39136
G1 X126.845 Y105.714 E0.03156
G1 X120.432 Y99.302 E0.39136
G1 X119.701 Y99.302 E0.03156
G1 X126.113 Y105.714 E0.39136
G1 X125.382 Y105.714 E0.03156
G1 X118.969 Y99.302 E0.39136
G1 X118.238 Y99.302 E0.03156
G1 X124.884 Y105.947 E0.40556
M204 S1500
G1 X124.152 Y105.947 F18000.000
G1 F1800.000
M204 S1000
G1 X117.507 Y99.302 E0.40556
G1 X116.776 Y99.302 E0.03156
G1 X121.688 Y104.214 E0.29982
G1 X120.957 Y104.214 E0.03156
G1 X116.044 Y99.302 E0.29982
G1 X115.313 Y99.302 E0.03156
G1 X120.226 Y104.214 E0.29982
G1 X119.495 Y104.214 E0.03156
G1 X114.582 Y99.302 E0.29982
G1 X113.851 Y99.302 E0.03156
G1 X118.763 Y104.214 E0.29982
G1 X118.032 Y104.214 E0.03156
G1 X113.119 Y99.302 E0.29982
G1 X112.388 Y99.302 E0.03156
G1 X117.301 Y104.214 E0.29982
G1 X117.090 Y104.214 E0.00910
G1 X116.830 Y104.475 E0.01588
G1 X111.657 Y99.302 E0.31570
G1 X110.926 Y99.302 E0.03156
G1 X116.464 Y104.840 E0.33801
G1 X116.099 Y105.206 E0.02231
G1 X110.194 Y99.302 E0.36033
G1 X109.463 Y99.302 E0.03156
G1 X115.733 Y105.572 E0.38264
G1 X115.590 Y105.714 E0.00872
G1 X115.145 Y105.714 E0.01923
G1 X108.732 Y99.302 E0.39136
G1 X108.001 Y99.302 E0.03156
G1 X114.413 Y105.714 E0.39136
G1 X113.682 Y105.714 E0.03156
G1 X107.269 Y99.302 E0.39136
G1 X106.538 Y99.302 E0.03156
G1 X112.951 Y105.714 E0.39136
G1 X112.219 Y105.714 E0.03156
G1 X105.807 Y99.302 E0.39136
G1 X105.076 Y99.302 E0.03156
G1 X111.488 Y105.714 E0.39136
G1 X110.757 Y105.714 E0.03156
G1 X104.344 Y99.302 E0.39136
G1 X103.613 Y99.302 E0.03156
G1 X110.026 Y105.714 E0.39136
G1 X109.294 Y105.714 E0.03156
G1 X102.882 Y99.302 E0.39136
G1 X102.150 Y99.302 E0.03156
G1 X108.563 Y105.714 E0.39136
G1 X107.832 Y105.714 E0.03156
G1 X101.419 Y99.302 E0.39136
G1 X100.688 Y99.302 E0.03156
G1 X107.101 Y105.714 E0.39136
G1 X106.369 Y105.714 E0.03156
G1 X99.957 Y99.302 E0.39136
G1 X99.225 Y99.302 E0.03156
G1 X105.638 Y105.714 E0.39136
G1 X104.907 Y105.714 E0.03156
G1 X98.494 Y99.302 E0.39136
G1 X97.763 Y99.302 E0.03156
G1 X104.176 Y105.714 E0.39136
G1 X103.444 Y105.714 E0.03156
G1 X97.032 Y99.302 E0.39136
G1 X96.300 Y99.302 E0.03156
G1 X102.713 Y105.714 E0.39136
G1 X101.982 Y105.714 E0.03156
G1 X95.569 Y99.302 E0.39136
G1 X94.838 Y99.302 E0.03156
G1 X101.251 Y105.714 E0.39136
G1 X100.519 Y105.714 E0.03156
