;FLAVOR:RepRap
;TIME:2443
;Filament used: 3.66089m
;Layer height: 0.3
;MINX:119.337
;MINY:119.338
;MINZ:0.3
;MAXX:230.664
;MAXY:230.662
;MAXZ:4.82
;Generated with Cura_SteamEngine 4.10.0

;
;

;
;
;T0
M190 S60
M104 S210
M109 S210
M82 ;absolute extrusion mode
print_start
M83 ;relative extrusion mode
G1 F2400 E-1
;LAYER_COUNT:14
;LAYER:0
M107
G1 F600 Z0.5
G0 F3600 X121.045 Y123.757 Z0.5
;TYPE:SKIRT
G1 F600 Z0.3
G1 F960 E1
G1 F1200 X123.953 Y120.85 E0.23078
G1 X124.435 Y120.38 E0.03779
G1 X124.85 Y120.031 E0.03043
G1 X125.312 Y119.747 E0.03044
G1 X125.81 Y119.534 E0.0304
G1 X126.334 Y119.397 E0.0304
G1 X126.873 Y119.338 E0.03043
G1 X127.414 Y119.359 E0.03039
G1 X127.694 Y119.402 E0.0159
G1 X128.638 Y119.583 E0.05395
G1 X131.342 Y120.065 E0.15416
G1 X134.027 Y120.464 E0.15235
G1 X136.738 Y120.789 E0.15325
G1 X139.456 Y121.038 E0.15319
G1 X142.177 Y121.21 E0.15302
G1 X144.903 Y121.304 E0.15309
G1 X146.911 Y121.325 E0.11271
G1 X203.1 Y121.325 E3.15369
G1 X205.877 Y121.286 E0.15588
G1 X208.602 Y121.17 E0.15308
G1 X211.327 Y120.977 E0.15333
G1 X214.03 Y120.709 E0.15245
G1 X216.739 Y120.362 E0.15329
G1 X219.396 Y119.945 E0.15095
G1 X222.317 Y119.401 E0.16676
G1 X222.856 Y119.341 E0.03044
G1 X223.397 Y119.362 E0.03039
G1 X223.93 Y119.461 E0.03043
G1 X224.442 Y119.638 E0.03041
G1 X224.923 Y119.888 E0.03043
G1 X225.539 Y120.367 E0.0438
G1 X226.234 Y121.036 E0.05414
G1 X229.155 Y123.959 E0.23193
G1 X229.627 Y124.445 E0.03802
G1 X229.975 Y124.86 E0.0304
G1 X230.258 Y125.322 E0.03041
G1 X230.47 Y125.821 E0.03043
G1 X230.606 Y126.345 E0.03038
G1 X230.664 Y126.884 E0.03043
G1 X230.642 Y127.425 E0.03039
G1 X230.598 Y127.708 E0.01607
G1 X230.411 Y128.668 E0.05489
G1 X229.935 Y131.342 E0.15244
G1 X229.536 Y134.027 E0.15235
G1 X229.211 Y136.738 E0.15325
G1 X228.962 Y139.456 E0.15319
G1 X228.79 Y142.177 E0.15302
G1 X228.696 Y144.903 E0.15309
G1 X228.675 Y146.911 E0.11271
G1 X228.675 Y203.1 E3.15369
G1 X228.714 Y205.878 E0.15593
G1 X228.83 Y208.602 E0.15303
G1 X229.023 Y211.327 E0.15333
G1 X229.291 Y214.03 E0.15245
G1 X229.638 Y216.739 E0.15329
G1 X230.055 Y219.396 E0.15095
G1 X230.599 Y222.317 E0.16676
G1 X230.659 Y222.856 E0.03044
G1 X230.638 Y223.397 E0.03039
G1 X230.539 Y223.93 E0.03043
G1 X230.362 Y224.442 E0.03041
G1 X230.112 Y224.923 E0.03043
G1 X229.633 Y225.54 E0.04384
G1 X228.955 Y226.243 E0.05482
G1 X226.05 Y229.147 E0.23054
G1 X225.558 Y229.625 E0.0385
G1 X225.142 Y229.973 E0.03044
G1 X224.68 Y230.256 E0.03041
G1 X224.182 Y230.468 E0.03038
G1 X223.657 Y230.604 E0.03044
G1 X223.119 Y230.662 E0.03037
G1 X222.577 Y230.64 E0.03045
G1 X222.303 Y230.598 E0.01556
G1 X221.348 Y230.414 E0.05459
G1 X218.658 Y229.935 E0.15336
G1 X215.973 Y229.536 E0.15235
G1 X213.262 Y229.211 E0.15325
G1 X210.544 Y228.962 E0.15319
G1 X207.823 Y228.79 E0.15302
G1 X205.097 Y228.696 E0.15309
G1 X203.089 Y228.675 E0.11271
G1 X146.9 Y228.675 E3.15369
G1 X144.123 Y228.714 E0.15588
G1 X141.398 Y228.83 E0.15308
G1 X138.673 Y229.023 E0.15333
G1 X135.97 Y229.291 E0.15245
G1 X133.261 Y229.638 E0.15329
G1 X130.604 Y230.055 E0.15095
G1 X127.683 Y230.599 E0.16676
G1 X127.144 Y230.659 E0.03044
G1 X126.603 Y230.638 E0.03039
G1 X126.07 Y230.539 E0.03043
G1 X125.558 Y230.362 E0.03041
G1 X125.077 Y230.112 E0.03043
G1 X124.46 Y229.633 E0.04384
G1 X123.757 Y228.955 E0.05482
G1 X120.847 Y226.044 E0.23102
G1 X120.378 Y225.562 E0.03775
G1 X120.03 Y225.147 E0.0304
G1 X119.747 Y224.685 E0.03041
G1 X119.534 Y224.186 E0.03045
G1 X119.397 Y223.662 E0.0304
G1 X119.337 Y222.99 E0.03787
G1 X119.403 Y222.295 E0.03918
G1 X119.587 Y221.34 E0.05459
G1 X120.065 Y218.658 E0.1529
G1 X120.464 Y215.973 E0.15235
G1 X120.789 Y213.262 E0.15325
G1 X121.038 Y210.544 E0.15319
G1 X121.21 Y207.823 E0.15302
G1 X121.304 Y205.097 E0.15309
G1 X121.325 Y203.089 E0.11271
G1 X121.325 Y146.9 E3.15369
G1 X121.286 Y144.122 E0.15593
G1 X121.17 Y141.398 E0.15303
G1 X120.977 Y138.672 E0.15338
G1 X120.708 Y135.965 E0.15268
G1 X120.364 Y133.269 E0.15254
G1 X119.944 Y130.599 E0.1517
G1 X119.401 Y127.683 E0.16648
G1 X119.341 Y127.144 E0.03044
G1 X119.362 Y126.603 E0.03039
G1 X119.461 Y126.07 E0.03043
G1 X119.638 Y125.558 E0.03041
G1 X119.888 Y125.077 E0.03043
G1 X120.367 Y124.46 E0.04384
G1 X121.045 Y123.757 E0.05482
G0 F3600 X121.321 Y124.119
G1 F1200 X124.268 Y121.172 E0.23392
G1 X124.75 Y120.702 E0.03779
G1 X125.14 Y120.377 E0.02849
G1 X125.576 Y120.118 E0.02846
G1 X126.047 Y119.93 E0.02846
G1 X126.543 Y119.819 E0.02853
G1 X127.049 Y119.786 E0.02846
G1 X127.609 Y119.844 E0.0316
G1 X128.548 Y120.024 E0.05366
G1 X131.265 Y120.508 E0.1549
G1 X133.98 Y120.912 E0.15406
G1 X136.677 Y121.236 E0.15246
G1 X139.422 Y121.487 E0.15471
G1 X142.168 Y121.66 E0.15443
G1 X144.884 Y121.754 E0.15253
G1 X146.906 Y121.775 E0.11349
G1 X203.106 Y121.775 E3.15431
G1 X205.903 Y121.735 E0.157
G1 X208.618 Y121.62 E0.15252
G1 X211.365 Y121.425 E0.15457
G1 X214.067 Y121.158 E0.15239
G1 X216.788 Y120.809 E0.15397
G1 X219.486 Y120.385 E0.15329
G1 X222.4 Y119.843 E0.16636
G1 X222.904 Y119.79 E0.02844
G1 X223.411 Y119.817 E0.0285
G1 X223.908 Y119.922 E0.02851
G1 X224.381 Y120.105 E0.02847
G1 X224.821 Y120.359 E0.02852
G1 X225.227 Y120.691 E0.02944
G1 X225.872 Y121.312 E0.05025
G1 X228.832 Y124.272 E0.23495
G1 X229.304 Y124.758 E0.03802
G1 X229.628 Y125.149 E0.0285
G1 X229.887 Y125.586 E0.02851
G1 X230.074 Y126.058 E0.0285
G1 X230.184 Y126.553 E0.02846
G1 X230.216 Y127.06 E0.02851
G1 X230.157 Y127.622 E0.03172
G1 X229.97 Y128.582 E0.05489
G1 X229.492 Y131.265 E0.15296
G1 X229.088 Y133.98 E0.15406
G1 X228.764 Y136.677 E0.15246
G1 X228.513 Y139.422 E0.15471
G1 X228.34 Y142.168 E0.15443
G1 X228.246 Y144.884 E0.15253
G1 X228.225 Y146.906 E0.11349
G1 X228.225 Y203.106 E3.15431
G1 X228.265 Y205.903 E0.157
G1 X228.38 Y208.618 E0.15252
G1 X228.575 Y211.365 E0.15457
G1 X228.842 Y214.067 E0.15239
G1 X229.191 Y216.788 E0.15397
G1 X229.615 Y219.486 E0.15329
G1 X230.157 Y222.4 E0.16636
G1 X230.21 Y222.904 E0.02844
G1 X230.183 Y223.411 E0.0285
G1 X230.078 Y223.908 E0.02851
G1 X229.895 Y224.381 E0.02847
G1 X229.641 Y224.821 E0.02852
G1 X229.309 Y225.227 E0.02944
G1 X228.679 Y225.881 E0.05097
G1 X225.736 Y228.824 E0.2336
G1 X225.244 Y229.302 E0.0385
G1 X224.854 Y229.626 E0.02846
G1 X224.417 Y229.885 E0.02851
G1 X223.945 Y230.072 E0.0285
G1 X223.45 Y230.182 E0.02846
G1 X222.943 Y230.214 E0.02851
G1 X222.388 Y230.156 E0.03132
G1 X221.438 Y229.973 E0.0543
G1 X218.735 Y229.492 E0.15409
G1 X216.02 Y229.088 E0.15406
G1 X213.323 Y228.764 E0.15246
G1 X210.578 Y228.513 E0.15471
G1 X207.832 Y228.34 E0.15443
G1 X205.116 Y228.246 E0.15253
G1 X203.094 Y228.225 E0.11349
G1 X146.894 Y228.225 E3.15431
G1 X144.097 Y228.265 E0.157
G1 X141.382 Y228.38 E0.15252
G1 X138.635 Y228.575 E0.15457
G1 X135.933 Y228.842 E0.15239
G1 X133.212 Y229.191 E0.15397
G1 X130.514 Y229.615 E0.15329
G1 X127.6 Y230.157 E0.16636
G1 X127.096 Y230.21 E0.02844
G1 X126.589 Y230.183 E0.0285
G1 X126.092 Y230.078 E0.02851
G1 X125.619 Y229.895 E0.02847
G1 X125.179 Y229.641 E0.02852
G1 X124.773 Y229.309 E0.02944
G1 X124.119 Y228.679 E0.05097
G1 X121.17 Y225.73 E0.23408
G1 X120.701 Y225.248 E0.03775
G1 X120.376 Y224.858 E0.02849
G1 X120.117 Y224.421 E0.02851
G1 X119.93 Y223.949 E0.0285
G1 X119.819 Y223.454 E0.02847
G1 X119.787 Y222.99 E0.0261
G1 X119.845 Y222.38 E0.03439
G1 X120.029 Y221.425 E0.05459
G1 X120.508 Y218.735 E0.15336
G1 X120.912 Y216.02 E0.15406
G1 X121.236 Y213.323 E0.15246
G1 X121.487 Y210.578 E0.15471
G1 X121.66 Y207.832 E0.15443
G1 X121.754 Y205.116 E0.15253
G1 X121.775 Y203.094 E0.11349
G1 X121.775 Y146.894 E3.15431
G1 X121.735 Y144.097 E0.157
G1 X121.62 Y141.382 E0.15252
G1 X121.425 Y138.634 E0.15462
G1 X121.158 Y135.933 E0.15234
G1 X120.809 Y133.211 E0.15403
G1 X120.386 Y130.514 E0.15322
G1 X119.843 Y127.6 E0.16637
G1 X119.79 Y127.096 E0.02844
G1 X119.817 Y126.589 E0.0285
G1 X119.922 Y126.092 E0.02851
G1 X120.105 Y125.619 E0.02847
G1 X120.359 Y125.179 E0.02852
G1 X120.691 Y124.773 E0.02944
G1 X121.321 Y124.119 E0.05097
G1 F2400 E-1
G1 F600 Z0.5
;MESH:YACS.stl
G0 F3600 X173.204 Y174.992 Z0.5
;TYPE:WALL-OUTER
G1 F600 Z0.3
G1 F960 E1
G1 F1200 X130.16 Y131.948 E3.03699
G1 X130.047 Y131.835 E0.00797
G1 X129.8 Y131.937 E0.01333
G1 X129.8 Y132.097 E0.00676
G1 X129.8 Y217.903 E4.28088
G1 X129.8 Y218.063 E0.00798
G1 X130.047 Y218.165 E0.01333
G1 X130.16 Y218.052 E0.00674
G1 X173.204 Y174.992 E3.03755
G0 F3600 X173.063 Y174.851
G0 X173.374 Y174.54
G1 F2400 E-1
G1 F600 Z0.5
G0 F3600 X174.992 Y173.204 Z0.5
G1 F600 Z0.3
G1 F960 E1
G1 F1200 X218.052 Y130.16 E3.03755
G1 X218.165 Y130.047 E0.00797
G1 X218.063 Y129.8 E0.01333
G1 X217.903 Y129.8 E0.00676
G1 X132.097 Y129.8 E4.28088
G1 X131.937 Y129.8 E0.00798
G1 X131.835 Y130.047 E0.01333
G1 X131.948 Y130.16 E0.00674
G1 X174.992 Y173.204 E3.03699
G0 F3600 X175.133 Y173.063
G0 X175.444 Y173.375
G1 F2400 E-1
G1 F600 Z0.5
G0 F3600 X176.796 Y175.008 Z0.5
G1 F600 Z0.3
G1 F960 E1
G1 F1200 X219.84 Y218.052 E3.03699
G1 X219.953 Y218.165 E0.00797
G1 X220.2 Y218.063 E0.01333
G1 X220.2 Y217.903 E0.00676
G1 X220.2 Y132.097 E4.28088
G1 X220.2 Y131.937 E0.00798
G1 X219.953 Y131.835 E0.01333
G1 X219.84 Y131.948 E0.00674
G1 X176.796 Y175.008 E3.03755
G0 F3600 X176.937 Y175.149
G0 X176.626 Y175.46
G1 F2400 E-1
G1 F600 Z0.5
G0 F3600 X175.008 Y176.796 Z0.5
G1 F600 Z0.3
G1 F960 E1
G1 F1200 X131.948 Y219.84 E3.03755
G1 X131.835 Y219.953 E0.00797
G1 X131.937 Y220.2 E0.01333
G1 X132.097 Y220.2 E0.00676
G1 X217.903 Y220.2 E4.28088
G1 X218.063 Y220.2 E0.00798
G1 X218.165 Y219.953 E0.01333
G1 X218.052 Y219.84 E0.00674
G1 X175.008 Y176.796 E3.03699
G0 F3600 X174.867 Y176.937
G0 X174.556 Y176.625
G1 F2400 E-1
G1 F600 Z0.5
G0 F3600 X126.8 Y224.8 Z0.5
G1 F600 Z0.3
G1 F960 E1
G1 F1200 X126.8 Y226.036 E0.06166
G1 X126.8 Y226.038 E0.0001
G1 X126.8 Y226.518 E0.02395
G1 X126.46 Y226.178 E0.01291
G1 X123.822 Y223.54 E0.18613
G1 X123.482 Y223.2 E0.02399
G1 X123.962 Y223.2 E0.01288
G1 X123.964 Y223.2 E0.0001
G1 X125.2 Y223.2 E0.06166
G1 X125.2 Y126.8 E4.80942
G1 X123.964 Y126.8 E0.06166
G1 X123.962 Y126.8 E0.0001
G1 X123.482 Y126.8 E0.02395
G1 X123.822 Y126.46 E0.01291
G1 X126.46 Y123.822 E0.18613
G1 X126.8 Y123.482 E0.02399
G1 X126.8 Y123.962 E0.01288
G1 X126.8 Y123.964 E0.0001
G1 X126.8 Y125.2 E0.06166
G1 X223.2 Y125.2 E4.80942
G1 X223.2 Y123.964 E0.06166
G1 X223.2 Y123.962 E0.0001
G1 X223.2 Y123.482 E0.02395
G1 X223.54 Y123.822 E0.01291
G1 X226.178 Y126.46 E0.18613
G1 X226.518 Y126.8 E0.02399
G1 X226.038 Y126.8 E0.01288
G1 X226.036 Y126.8 E0.0001
G1 X224.8 Y126.8 E0.06166
G1 X224.8 Y223.2 E4.80942
G1 X226.036 Y223.2 E0.06166
G1 X226.038 Y223.2 E0.0001
G1 X226.518 Y223.2 E0.02395
G1 X226.178 Y223.54 E0.01291
G1 X223.54 Y226.178 E0.18613
G1 X223.2 Y226.518 E0.02399
G1 X223.2 Y226.038 E0.01288
G1 X223.2 Y226.036 E0.0001
G1 X223.2 Y224.8 E0.06166
G1 X126.8 Y224.8 E4.80942
G0 F3600 X126.8 Y225
G0 X126.36 Y225
G0 X126.385 Y225.517
;TYPE:SKIN
G1 F1200 X124.483 Y223.615 E0.15097
G1 X125.615 Y223.615 E0.06354
G1 X125.615 Y126.385 E5.45718
G1 X124.483 Y126.385 E0.06354
G1 X126.385 Y124.483 E0.15097
G1 X126.385 Y125.615 E0.06354
G1 X223.615 Y125.615 E5.45718
G1 X223.615 Y124.483 E0.06354
G1 X225.517 Y126.385 E0.15097
G1 X224.385 Y126.385 E0.06354
G1 X224.385 Y223.615 E5.45718
G1 X225.517 Y223.615 E0.06354
G1 X223.615 Y225.517 E0.15097
G1 X223.615 Y224.385 E0.06354
G1 X126.385 Y224.385 E5.45718
G1 X126.385 Y225.517 E0.06354
G1 F2400 E-1
G1 F600 Z0.5
G0 F3600 X131.659 Y220.615 Z0.5
G1 F600 Z0.3
G1 F960 E1
G1 F1200 X218.341 Y220.615 E4.86516
G1 X218.654 Y219.855 E0.04613
G1 X175.008 Y176.209 E3.46439
G1 X131.345 Y219.855 E3.46507
G1 X131.659 Y220.615 E0.04615
G1 F2400 E-1
G1 F600 Z0.5
G0 F3600 X129.385 Y218.341 Z0.5
G1 F600 Z0.3
G1 F960 E1
G1 F1200 X130.145 Y218.655 E0.04615
G1 X173.791 Y174.992 E3.46507
G1 X130.145 Y131.346 E3.46439
G1 X129.385 Y131.659 E0.04613
G1 X129.385 Y218.341 E4.86516
G1 F2400 E-1
G1 F600 Z0.5
G0 F3600 X174.992 Y173.791 Z0.5
G1 F600 Z0.3
G1 F960 E1
G1 F1200 X218.655 Y130.145 E3.46507
G1 X218.341 Y129.385 E0.04615
G1 X131.659 Y129.385 E4.86516
G1 X131.346 Y130.145 E0.04613
G1 X174.992 Y173.791 E3.46439
G1 F2400 E-1
G1 F600 Z0.5
G0 F3600 X176.209 Y175.008 Z0.5
G1 F600 Z0.3
G1 F960 E1
G1 F1200 X219.855 Y218.654 E3.46439
G1 X220.615 Y218.341 E0.04613
G1 X220.615 Y131.659 E4.86516
G1 X219.855 Y131.345 E0.04615
G1 X176.209 Y175.008 E3.46507
G1 F2400 E-1
G1 F600 Z0.5
G0 F3600 X224.821 Y126.18 Z0.5
G1 F600 Z0.3
G1 F960 E1
G1 F1200 X223.818 Y125.176 E0.07965
G0 F3600 X223.818 Y125.813
G1 F1200 X224.185 Y126.18 E0.02913
G0 F3600 X224.18 Y126.811
G1 F1200 X223.187 Y125.819 E0.07878
G0 F3600 X222.551 Y125.819
G1 F1200 X224.18 Y127.448 E0.1293
G0 F3600 X224.18 Y128.084
G1 F1200 X221.914 Y125.819 E0.17982
G0 F3600 X221.278 Y125.819
G1 F1200 X224.18 Y128.721 E0.23035
G0 F3600 X224.18 Y129.357
G1 F1200 X220.642 Y125.819 E0.28083
G0 F3600 X220.005 Y125.819
G1 F1200 X224.18 Y129.993 E0.33135
G0 F3600 X224.18 Y130.63
G1 F1200 X219.369 Y125.819 E0.38187
G0 F3600 X218.732 Y125.819
G1 F1200 X224.18 Y131.266 E0.43239
G0 F3600 X224.18 Y131.902
G1 F1200 X218.096 Y125.819 E0.48288
G0 F3600 X217.46 Y125.819
G1 F1200 X224.18 Y132.539 E0.5334
G0 F3600 X224.18 Y133.175
G1 F1200 X216.823 Y125.819 E0.58392
G0 F3600 X216.187 Y125.819
G1 F1200 X224.18 Y133.812 E0.63444
G0 F3600 X224.18 Y134.448
G1 F1200 X215.55 Y125.819 E0.68497
G0 F3600 X214.914 Y125.819
G1 F1200 X218.276 Y129.18 E0.26682
G0 F3600 X218.616 Y129.52
G1 F1200 X220.478 Y131.382 E0.1478
G0 F3600 X220.818 Y131.722
G1 F1200 X224.18 Y135.084 E0.26686
G0 F3600 X224.18 Y135.721
G1 F1200 X220.818 Y132.359 E0.26686
G0 F3600 X220.818 Y132.995
G1 F1200 X224.18 Y136.357 E0.26686
G0 F3600 X224.18 Y136.994
G1 F1200 X220.818 Y133.631 E0.2669
G0 F3600 X220.818 Y134.268
G1 F1200 X224.18 Y137.63 E0.26686
G0 F3600 X224.18 Y138.266
G1 F1200 X220.818 Y134.904 E0.26686
G0 F3600 X220.818 Y135.541
G1 F1200 X224.18 Y138.903 E0.26686
G0 F3600 X224.18 Y139.539
G1 F1200 X220.818 Y136.177 E0.26686
G0 F3600 X220.818 Y136.813
G1 F1200 X224.18 Y140.176 E0.2669
G0 F3600 X224.18 Y140.812
G1 F1200 X220.818 Y137.45 E0.26686
G0 F3600 X220.818 Y138.086
G1 F1200 X224.18 Y141.448 E0.26686
G0 F3600 X224.18 Y142.085
G1 F1200 X220.818 Y138.723 E0.26686
G0 F3600 X220.818 Y139.359
G1 F1200 X224.18 Y142.721 E0.26686
G0 F3600 X224.18 Y143.358
G1 F1200 X220.818 Y139.995 E0.2669
G0 F3600 X220.818 Y140.632
G1 F1200 X224.18 Y143.994 E0.26686
G0 F3600 X224.18 Y144.63
G1 F1200 X220.818 Y141.268 E0.26686
G0 F3600 X220.818 Y141.905
G1 F1200 X224.18 Y145.267 E0.26686
G0 F3600 X224.18 Y145.903
G1 F1200 X220.818 Y142.541 E0.26686
G0 F3600 X220.818 Y143.177
G1 F1200 X224.18 Y146.54 E0.2669
G0 F3600 X224.18 Y147.176
G1 F1200 X220.818 Y143.814 E0.26686
G0 F3600 X220.818 Y144.45
G1 F1200 X224.18 Y147.812 E0.26686
G0 F3600 X224.18 Y148.449
G1 F1200 X220.818 Y145.086 E0.2669
G0 F3600 X220.818 Y145.723
G1 F1200 X224.18 Y149.085 E0.26686
G0 F3600 X224.18 Y149.722
G1 F1200 X220.818 Y146.359 E0.2669
G0 F3600 X220.818 Y146.996
G1 F1200 X224.18 Y150.358 E0.26686
G0 F3600 X224.18 Y150.994
G1 F1200 X220.818 Y147.632 E0.26686
G0 F3600 X220.818 Y148.268
G1 F1200 X224.18 Y151.631 E0.2669
G0 F3600 X224.18 Y152.267
G1 F1200 X220.818 Y148.905 E0.26686
G0 F3600 X220.818 Y149.541
G1 F1200 X224.18 Y152.904 E0.2669
G0 F3600 X224.18 Y153.54
G1 F1200 X220.818 Y150.178 E0.26686
G0 F3600 X220.818 Y150.814
G1 F1200 X224.18 Y154.176 E0.26686
G0 F3600 X224.18 Y154.813
G1 F1200 X220.818 Y151.45 E0.2669
G0 F3600 X220.818 Y152.087
G1 F1200 X224.18 Y155.449 E0.26686
G0 F3600 X224.18 Y156.086
G1 F1200 X220.818 Y152.723 E0.2669
G0 F3600 X220.818 Y153.36
