; generated by SuperSlicer 2.3.56 on 2021-08-17 at 02:50:06 UTC


;
;

;
;
; TODO: check the size of the extruder and the y-bar clearance. Optimize & test supports.

; external perimeters extrusion width = 0.42mm
; perimeters extrusion width = 0.44mm
; infill extrusion width = 0.44mm
; solid infill extrusion width = 0.44mm
; top infill extrusion width = 0.44mm
; first layer extrusion width = 0.56mm

; object:{"name":"square_tower","id":"square_tower.stl id:0 copy 0","object_center":[90.260295,75.911382,0.000000],"boundingbox_center":[90.260295,75.911382,25.000000],"boundingbox_size":[66.000000,65.945206,50.000000]}
; plater:{"center":[90.260295,75.911382,0.000000],"boundingbox_center":[90.260295,75.911382,25.000000],"boundingbox_size":[66.000000,65.945206,50.000000]}

;TYPE:Custom
;EXTRUDER=235 
;BED=55 
;CHAMBER=15
M140 S55 
M190 S55
M104 S235  T0
M109 S235 T0
print_start
M107
G21 ; set units to millimeters
G90 ; use absolute coordinates
M83 ; use relative distances for extrusion
M107
;LAYER_CHANGE
;Z:0.2
;HEIGHT:0.2
;BEFORE_LAYER_CHANGE
;0.2


G1 Z0.200000 F18000.000
;AFTER_LAYER_CHANGE
;0.2
G1 E-0.75000 F3000.000
G1 Z1.000000 F18000.000
G1 X55.057 Y42.215
G1 Z0.200000
G1 E0.75000 F1800.000
;TYPE:Skirt
;WIDTH:0.56
M204 S1000
G1 X56.191 Y41.009 E0.07120
G1 X57.781 Y39.886 E0.08371
G1 X59.499 Y39.144 E0.08043
G1 X61.515 Y38.752 E0.08830
G1 X118.778 Y38.746 E2.46204
G1 X119.652 Y38.837 E0.03779
G1 X121.475 Y39.310 E0.08100
G1 X122.980 Y40.025 E0.07163
G1 X124.593 Y41.254 E0.08719
G1 X125.724 Y42.547 E0.07385
G1 X126.646 Y44.146 E0.07934
G1 X127.232 Y45.911 E0.07999
G1 X127.433 Y47.508 E0.06922
G1 X127.450 Y104.050 E2.43101
G1 X127.259 Y105.789 E0.07522
G1 X126.779 Y107.347 E0.07011
G1 X125.934 Y108.951 E0.07794
G1 X125.464 Y109.607 E0.03472
G1 X124.322 Y110.821 E0.07163
G1 X122.703 Y111.956 E0.08503
G1 X120.973 Y112.693 E0.08085
G1 X118.847 Y113.076 E0.09287
G1 X61.590 Y113.074 E2.46181
G1 X59.834 Y112.766 E0.07664
G1 X59.083 Y112.529 E0.03384
G1 X57.615 Y111.843 E0.06968
G1 X56.166 Y110.793 E0.07692
G1 X54.838 Y109.334 E0.08481
G1 X53.877 Y107.682 E0.08218
G1 X53.274 Y105.847 E0.08306
G1 X53.069 Y103.982 E0.08066
G1 X53.070 Y47.773 E2.41672
G1 X53.262 Y46.034 E0.07521
G1 X53.741 Y44.476 E0.07011
G1 X54.587 Y42.872 E0.07795
G1 X55.022 Y42.264 E0.03214
M204 S1500
G1 X55.441 Y42.565 F18000.000
G1 F1800.000
M204 S1000
G1 X55.457 Y42.544 E0.00115
G1 X56.523 Y41.405 E0.06705
G1 X58.022 Y40.343 E0.07899
G1 X59.647 Y39.640 E0.07612
G1 X61.553 Y39.268 E0.08350
G1 X118.777 Y39.263 E2.46038
G1 X119.549 Y39.344 E0.03338
G1 X121.276 Y39.788 E0.07665
G1 X122.703 Y40.462 E0.06787
G1 X124.237 Y41.629 E0.08287
G1 X125.303 Y42.846 E0.06954
G1 X126.177 Y44.364 E0.07531
G1 X126.731 Y46.040 E0.07592
G1 X126.920 Y47.574 E0.06643
G1 X126.934 Y104.027 E2.42720
G1 X126.752 Y105.685 E0.07174
G1 X126.293 Y107.171 E0.06685
G1 X125.487 Y108.691 E0.07400
G1 X125.064 Y109.279 E0.03112
G1 X123.991 Y110.423 E0.06746
G1 X122.469 Y111.495 E0.08003
G1 X120.837 Y112.194 E0.07631
G1 X118.833 Y112.559 E0.08758
G1 X61.619 Y112.557 E2.45997
G1 X59.947 Y112.261 E0.07298
G1 X59.276 Y112.048 E0.03030
G1 X57.879 Y111.398 E0.06625
G1 X56.496 Y110.394 E0.07345
G1 X55.252 Y109.023 E0.07962
G1 X54.346 Y107.463 E0.07756
G1 X53.778 Y105.731 E0.07839
G1 X53.586 Y103.971 E0.07613
G1 X53.587 Y47.796 E2.41524
G1 X53.769 Y46.138 E0.07174
G1 X54.228 Y44.652 E0.06686
G1 X55.034 Y43.131 E0.07400
G1 X55.406 Y42.614 E0.02739
M204 S1500
G1 X55.824 Y42.916 F18000.000
G1 F1800.000
M204 S1000
G1 X55.854 Y42.875 E0.00221
G1 X56.857 Y41.800 E0.06318
G1 X58.265 Y40.800 E0.07427
G1 X59.792 Y40.136 E0.07161
G1 X61.588 Y39.784 E0.07865
G1 X118.777 Y39.780 E2.45887
G1 X119.445 Y39.850 E0.02890
G1 X121.075 Y40.264 E0.07229
G1 X122.425 Y40.898 E0.06413
G1 X123.875 Y41.999 E0.07826
G1 X124.882 Y43.147 E0.06568
G1 X125.708 Y44.583 E0.07123
G1 X126.229 Y46.165 E0.07161
G1 X126.406 Y47.633 E0.06356
G1 X126.417 Y104.005 E2.42374
G1 X126.246 Y105.579 E0.06808
G1 X125.808 Y106.991 E0.06357
G1 X125.039 Y108.432 E0.07020
G1 X124.667 Y108.948 E0.02738
G1 X123.661 Y110.025 E0.06337
G1 X122.236 Y111.034 E0.07504
G1 X120.698 Y111.696 E0.07197
G1 X118.821 Y112.042 E0.08206
G1 X61.641 Y112.041 E2.45849
G1 X60.056 Y111.756 E0.06926
G1 X59.474 Y111.571 E0.02623
G1 X58.145 Y110.955 E0.06301
G1 X56.827 Y109.996 E0.07008
G1 X55.667 Y108.716 E0.07428
G1 X54.814 Y107.244 E0.07313
G1 X54.283 Y105.619 E0.07352
G1 X54.103 Y103.958 E0.07180
G1 X54.104 Y47.818 E2.41378
G1 X54.276 Y46.239 E0.06827
G1 X54.713 Y44.831 E0.06338
G1 X55.481 Y43.391 E0.07021
G1 X55.789 Y42.965 E0.02259
; INIT printing object square_tower.stl id:0 copy 0
G1 E-0.75000 F3000.000
M204 S1500
G1 Z0.600000 F18000.000
; printing object square_tower.stl id:0 copy 0
G1 X88.880 Y50.531
G1 Z0.200000
G1 E0.75000 F1800.000
;TYPE:External perimeter
M204 S1000
G1 X64.880 Y50.531 E1.03189
G1 X64.880 Y70.531 E0.85991
G1 X64.380 Y70.531 E0.02150
G1 X64.380 Y73.291 E0.11867
G1 X64.880 Y73.291 E0.02150
G1 X64.880 Y101.291 E1.20387
G1 X88.880 Y101.291 E1.03189
G1 X88.880 Y101.791 E0.02150
G1 X91.640 Y101.791 E0.11867
G1 X91.640 Y101.291 E0.02150
G1 X115.640 Y101.291 E1.03189
G1 X115.640 Y77.291 E1.03189
G1 X116.140 Y77.291 E0.02150
G1 X116.140 Y74.531 E0.11867
G1 X115.640 Y74.531 E0.02150
G1 X115.640 Y50.531 E1.03189
G1 X91.640 Y50.531 E1.03189
G1 X91.640 Y50.031 E0.02150
G1 X88.880 Y50.031 E0.11867
G1 X88.880 Y50.471 E0.01892
G1 E-0.75000 F3000.000
M204 S1500
G1 X66.563 Y46.291 F18000.000
G1 E0.75000 F1800.000
M204 S1000
G1 X113.957 Y46.291 E2.03774
G1 X114.042 Y46.033 E0.01167
G1 X114.524 Y45.197 E0.04152
G1 X115.170 Y44.480 E0.04151
G1 X115.951 Y43.912 E0.04151
G1 X116.833 Y43.519 E0.04151
G1 X117.778 Y43.319 E0.04151
G1 X118.743 Y43.319 E0.04150
G1 X119.687 Y43.519 E0.04151
G1 X120.569 Y43.912 E0.04151
G1 X121.350 Y44.480 E0.04151
G1 X121.996 Y45.197 E0.04151
G1 X122.479 Y46.033 E0.04151
G1 X122.777 Y46.951 E0.04151
G1 X122.878 Y47.911 E0.04151
G1 X122.777 Y48.871 E0.04151
G1 X122.479 Y49.790 E0.04151
G1 X121.996 Y50.626 E0.04151
G1 X121.350 Y51.343 E0.04151
G1 X120.569 Y51.911 E0.04151
G1 X119.880 Y52.217 E0.03243
G1 X119.880 Y99.605 E2.03747
G1 X120.569 Y99.912 E0.03243
G1 X121.350 Y100.480 E0.04151
G1 X121.996 Y101.197 E0.04151
G1 X122.479 Y102.033 E0.04151
G1 X122.777 Y102.951 E0.04151
G1 X122.878 Y103.911 E0.04151
G1 X122.777 Y104.872 E0.04151
G1 X122.479 Y105.790 E0.04151
G1 X121.996 Y106.626 E0.04151
G1 X121.350 Y107.343 E0.04151
G1 X120.569 Y107.911 E0.04151
G1 X119.687 Y108.303 E0.04151
G1 X118.743 Y108.504 E0.04151
G1 X117.778 Y108.504 E0.04150
G1 X116.833 Y108.303 E0.04151
G1 X115.951 Y107.911 E0.04151
G1 X115.170 Y107.343 E0.04151
G1 X114.524 Y106.626 E0.04151
G1 X114.042 Y105.789 E0.04152
G1 X113.957 Y105.531 E0.01167
G1 X66.563 Y105.531 E2.03774
G1 X66.479 Y105.790 E0.01168
G1 X65.996 Y106.626 E0.04150
G1 X65.350 Y107.343 E0.04151
G1 X64.569 Y107.911 E0.04151
G1 X63.687 Y108.303 E0.04151
G1 X62.743 Y108.504 E0.04151
G1 X61.778 Y108.504 E0.04151
G1 X60.833 Y108.303 E0.04151
G1 X59.951 Y107.911 E0.04151
G1 X59.170 Y107.343 E0.04151
G1 X58.524 Y106.626 E0.04151
G1 X58.042 Y105.790 E0.04151
G1 X57.743 Y104.872 E0.04151
G1 X57.642 Y103.911 E0.04151
G1 X57.743 Y102.951 E0.04151
G1 X58.042 Y102.033 E0.04151
G1 X58.524 Y101.197 E0.04151
G1 X59.170 Y100.480 E0.04151
G1 X59.951 Y99.912 E0.04151
G1 X60.640 Y99.605 E0.03242
G1 X60.640 Y52.217 E2.03747
G1 X59.951 Y51.911 E0.03242
G1 X59.170 Y51.343 E0.04151
G1 X58.524 Y50.626 E0.04151
G1 X58.042 Y49.790 E0.04151
G1 X57.743 Y48.872 E0.04151
G1 X57.642 Y47.911 E0.04151
G1 X57.743 Y46.951 E0.04151
G1 X58.042 Y46.033 E0.04151
G1 X58.524 Y45.197 E0.04151
G1 X59.170 Y44.480 E0.04151
G1 X59.951 Y43.912 E0.04151
G1 X60.833 Y43.519 E0.04151
G1 X61.778 Y43.319 E0.04151
G1 X62.743 Y43.319 E0.04151
G1 X63.045 Y43.383 E0.01326
G1 X63.687 Y43.519 E0.02824
G1 X64.569 Y43.912 E0.04151
G1 X65.350 Y44.480 E0.04151
G1 X65.996 Y45.197 E0.04151
G1 X66.479 Y46.033 E0.04151
G1 X66.544 Y46.234 E0.00910
G1 E-0.75000 F3000.000
M204 S1500
G1 X119.142 Y43.589 F18000.000
G1 E0.75000 F1800.000
;TYPE:Solid infill
;WIDTH:0.563547
M204 S1000
G1 X122.264 Y46.711 E0.19104
G1 X122.370 Y47.038 E0.01488
G1 X122.430 Y47.608 E0.02482
G1 X118.555 Y43.732 E0.23716
G1 X117.823 Y43.732 E0.03164
G1 X122.419 Y48.328 E0.28117
G1 X122.370 Y48.785 E0.01990
G1 X122.315 Y48.955 E0.00775
G1 X117.220 Y43.860 E0.31177
G1 X116.962 Y43.915 E0.01142
G1 X116.672 Y44.044 E0.01371
G1 X122.136 Y49.507 E0.33430
G1 X122.099 Y49.620 E0.00515
G1 X121.886 Y49.989 E0.01841
G1 X116.166 Y44.269 E0.34999
G1 X116.159 Y44.272 E0.00034
G1 X115.742 Y44.576 E0.02233
G1 X121.606 Y50.441 E0.35886
G1 X121.260 Y50.825 E0.02240
G1 X115.342 Y44.907 E0.36213
G1 X114.995 Y45.292 E0.02240
G1 X120.878 Y51.175 E0.35997
G1 X120.455 Y51.483 E0.02265
G1 X114.697 Y45.725 E0.35230
G1 X114.430 Y46.189 E0.02316
G1 X119.967 Y51.726 E0.33883
G1 X119.467 Y51.949 E0.02369
G1 X119.467 Y51.957 E0.00036
G1 X114.215 Y46.705 E0.32137
G1 X113.483 Y46.705 E0.03164
G1 X119.467 Y52.688 E0.36611
G1 X119.467 Y53.420 E0.03164
G1 X112.752 Y46.705 E0.41086
G1 X112.021 Y46.705 E0.03164
G1 X115.434 Y50.118 E0.20882
G1 X116.054 Y50.118 E0.02684
G1 X116.054 Y50.738 E0.02684
G1 X119.467 Y54.151 E0.20882
G1 X119.467 Y54.882 E0.03164
G1 X116.054 Y51.469 E0.20882
G1 X116.054 Y52.201 E0.03164
G1 X119.467 Y55.613 E0.20882
G1 X119.467 Y56.345 E0.03164
G1 X116.054 Y52.932 E0.20882
G1 X116.054 Y53.663 E0.03164
G1 X119.467 Y57.076 E0.20882
G1 X119.467 Y57.807 E0.03164
G1 X116.054 Y54.394 E0.20882
G1 X116.054 Y55.126 E0.03164
G1 X119.467 Y58.538 E0.20882
G1 X119.467 Y59.270 E0.03164
G1 X116.054 Y55.857 E0.20882
G1 X116.054 Y56.588 E0.03164
G1 X119.467 Y60.001 E0.20882
G1 X119.467 Y60.732 E0.03164
G1 X116.054 Y57.319 E0.20882
G1 X116.054 Y58.051 E0.03164
G1 X119.467 Y61.463 E0.20882
G1 X119.467 Y62.195 E0.03164
G1 X116.054 Y58.782 E0.20882
G1 X116.054 Y59.513 E0.03164
G1 X119.467 Y62.926 E0.20882
G1 X119.467 Y63.657 E0.03164
G1 X116.054 Y60.244 E0.20882
G1 X116.054 Y60.976 E0.03164
G1 X119.467 Y64.388 E0.20882
G1 X119.467 Y65.120 E0.03164
G1 X116.054 Y61.707 E0.20882
G1 X116.054 Y62.438 E0.03164
G1 X119.467 Y65.851 E0.20882
G1 X119.467 Y66.582 E0.03164
G1 X116.054 Y63.170 E0.20882
G1 X116.054 Y63.901 E0.03164
G1 X119.467 Y67.313 E0.20882
G1 X119.467 Y68.045 E0.03164
G1 X116.054 Y64.632 E0.20882
G1 X116.054 Y65.363 E0.03164
G1 X119.467 Y68.776 E0.20882
G1 X119.467 Y69.507 E0.03164
G1 X116.054 Y66.095 E0.20882
G1 X116.054 Y66.826 E0.03164
G1 X119.467 Y70.239 E0.20882
G1 X119.467 Y70.970 E0.03164
G1 X116.054 Y67.557 E0.20882
G1 X116.054 Y68.288 E0.03164
G1 X119.467 Y71.701 E0.20882
G1 X119.467 Y72.432 E0.03164
G1 X116.054 Y69.020 E0.20882
G1 X116.054 Y69.751 E0.03164
G1 X119.467 Y73.164 E0.20882
G1 X119.467 Y73.895 E0.03164
G1 X116.054 Y70.482 E0.20882
G1 X116.054 Y71.213 E0.03164
G1 X119.467 Y74.626 E0.20882
G1 X119.467 Y75.357 E0.03164
G1 X116.054 Y71.945 E0.20882
G1 X116.054 Y72.676 E0.03164
G1 X119.467 Y76.089 E0.20882
G1 X119.467 Y76.820 E0.03164
G1 X115.821 Y73.174 E0.22306
M204 S1500
G1 X116.321 Y74.406 F18000.000
G1 F1800.000
M204 S1000
G1 X119.467 Y77.551 E0.19246
G1 X119.467 Y78.282 E0.03164
G1 X116.554 Y75.370 E0.17823
G1 X116.554 Y76.101 E0.03164
G1 X119.467 Y79.014 E0.17823
G1 X119.467 Y79.745 E0.03164
G1 X116.554 Y76.832 E0.17823
G1 X116.554 Y77.563 E0.03164
G1 X119.467 Y80.476 E0.17823
G1 X119.467 Y81.207 E0.03164
G1 X116.054 Y77.795 E0.20882
G1 X116.054 Y78.526 E0.03164
G1 X119.467 Y81.939 E0.20882
G1 X119.467 Y82.670 E0.03164
G1 X116.054 Y79.257 E0.20882
G1 X116.054 Y79.989 E0.03164
G1 X119.467 Y83.401 E0.20882
G1 X119.467 Y84.132 E0.03164
G1 X116.054 Y80.720 E0.20882
G1 X116.054 Y81.451 E0.03164
G1 X119.467 Y84.864 E0.20882
G1 X119.467 Y85.595 E0.03164
G1 X116.054 Y82.182 E0.20882
G1 X116.054 Y82.914 E0.03164
G1 X119.467 Y86.326 E0.20882
G1 X119.467 Y87.058 E0.03164
G1 X116.054 Y83.645 E0.20882
G1 X116.054 Y84.376 E0.03164
G1 X119.467 Y87.789 E0.20882
G1 X119.467 Y88.520 E0.03164
G1 X116.054 Y85.107 E0.20882
G1 X116.054 Y85.839 E0.03164
G1 X119.467 Y89.251 E0.20882
G1 X119.467 Y89.983 E0.03164
G1 X116.054 Y86.570 E0.20882
G1 X116.054 Y87.301 E0.03164
G1 X119.467 Y90.714 E0.20882
G1 X119.467 Y91.445 E0.03164
G1 X116.054 Y88.032 E0.20882
G1 X116.054 Y88.764 E0.03164
G1 X119.467 Y92.176 E0.20882
G1 X119.467 Y92.908 E0.03164
G1 X116.054 Y89.495 E0.20882
G1 X116.054 Y90.226 E0.03164
G1 X119.467 Y93.639 E0.20882
G1 X119.467 Y94.370 E0.03164
G1 X116.054 Y90.957 E0.20882
G1 X116.054 Y91.689 E0.03164
G1 X119.467 Y95.101 E0.20882
G1 X119.467 Y95.833 E0.03164
G1 X116.054 Y92.420 E0.20882
G1 X116.054 Y93.151 E0.03164
G1 X119.467 Y96.564 E0.20882
G1 X119.467 Y97.295 E0.03164
G1 X116.054 Y93.882 E0.20882
G1 X116.054 Y94.614 E0.03164
G1 X119.467 Y98.026 E0.20882
G1 X119.467 Y98.758 E0.03164
G1 X116.054 Y95.345 E0.20882
G1 X116.054 Y96.076 E0.03164
G1 X119.467 Y99.489 E0.20882
G1 X119.467 Y99.874 E0.01667
G1 X120.161 Y100.183 E0.03288
G1 X121.988 Y102.011 E0.11182
G1 X122.099 Y102.202 E0.00958
G1 X122.370 Y103.038 E0.03801
G1 X122.381 Y103.134 E0.00419
G1 X116.054 Y96.808 E0.38712
G1 X116.054 Y97.539 E0.03164
G1 X122.459 Y103.944 E0.39192
G1 X122.389 Y104.605 E0.02879
G1 X116.054 Y98.270 E0.38766
G1 X116.054 Y99.001 E0.03164
G1 X122.240 Y105.187 E0.37851
G1 X122.099 Y105.621 E0.01972
G1 X122.041 Y105.720 E0.00497
G1 X116.054 Y99.733 E0.36638
G1 X116.054 Y100.464 E0.03164
G1 X121.774 Y106.184 E0.35000
G1 X121.660 Y106.381 E0.00987
G1 X121.461 Y106.602 E0.01286
G1 X116.054 Y101.195 E0.33085
G1 X116.054 Y101.705 E0.02207
G1 X115.833 Y101.705 E0.00957
G1 X121.114 Y106.987 E0.32319
G1 X121.072 Y107.034 E0.00275
G1 X120.700 Y107.304 E0.01987
G1 X115.101 Y101.705 E0.34260
G1 X114.370 Y101.705 E0.03164
G1 X120.260 Y107.595 E0.36042
G1 X119.754 Y107.821 E0.02396
G1 X113.639 Y101.705 E0.37421
G1 X112.908 Y101.705 E0.03164
G1 X119.189 Y107.986 E0.38435
G1 X118.699 Y108.090 E0.02165
G1 X118.562 Y108.090 E0.00596
G1 X112.176 Y101.705 E0.39071
G1 X111.445 Y101.705 E0.03164
G1 X117.830 Y108.090 E0.39071
G1 X117.821 Y108.090 E0.00040
G1 X116.962 Y107.908 E0.03801
G1 X116.880 Y107.871 E0.00387
G1 X110.714 Y101.705 E0.37732
G1 X109.983 Y101.705 E0.03164
G1 X113.395 Y105.118 E0.20882
G1 X112.664 Y105.118 E0.03164
G1 X109.251 Y101.705 E0.20882
G1 X108.520 Y101.705 E0.03164
G1 X111.933 Y105.118 E0.20882
G1 X111.201 Y105.118 E0.03164
G1 X107.789 Y101.705 E0.20882
G1 X107.058 Y101.705 E0.03164
G1 X110.470 Y105.118 E0.20882
G1 X109.739 Y105.118 E0.03164
G1 X106.326 Y101.705 E0.20882
G1 X105.595 Y101.705 E0.03164
G1 X109.008 Y105.118 E0.20882
G1 X108.276 Y105.118 E0.03164
G1 X104.864 Y101.705 E0.20882
G1 X104.132 Y101.705 E0.03164
G1 X107.545 Y105.118 E0.20882
G1 X106.814 Y105.118 E0.03164
G1 X103.401 Y101.705 E0.20882
G1 X102.670 Y101.705 E0.03164
G1 X106.083 Y105.118 E0.20882
G1 X105.351 Y105.118 E0.03164
G1 X101.939 Y101.705 E0.20882
G1 X101.207 Y101.705 E0.03164
G1 X104.620 Y105.118 E0.20882
G1 X103.889 Y105.118 E0.03164
G1 X100.476 Y101.705 E0.20882
G1 X99.745 Y101.705 E0.03164
G1 X103.158 Y105.118 E0.20882
G1 X102.426 Y105.118 E0.03164
G1 X99.014 Y101.705 E0.20882
G1 X98.282 Y101.705 E0.03164
G1 X101.695 Y105.118 E0.20882
G1 X100.964 Y105.118 E0.03164
G1 X97.551 Y101.705 E0.20882
G1 X96.820 Y101.705 E0.03164
G1 X100.233 Y105.118 E0.20882
G1 X99.501 Y105.118 E0.03164
G1 X96.089 Y101.705 E0.20882
G1 X95.357 Y101.705 E0.03164
G1 X98.770 Y105.118 E0.20882
G1 X98.039 Y105.118 E0.03164
G1 X94.626 Y101.705 E0.20882
G1 X93.895 Y101.705 E0.03164
G1 X97.308 Y105.118 E0.20882
G1 X96.576 Y105.118 E0.03164
G1 X93.164 Y101.705 E0.20882
G1 X92.432 Y101.705 E0.03164
G1 X95.845 Y105.118 E0.20882
G1 X95.114 Y105.118 E0.03164
G1 X92.054 Y102.058 E0.18723
G1 X92.054 Y102.205 E0.00637
G1 X91.470 Y102.205 E0.02527
G1 X94.383 Y105.118 E0.17823
G1 X93.651 Y105.118 E0.03164
G1 X90.739 Y102.205 E0.17823
G1 X90.007 Y102.205 E0.03164
G1 X92.920 Y105.118 E0.17823
G1 X92.189 Y105.118 E0.03164
G1 X89.043 Y101.972 E0.19246
M204 S1500
G1 X87.812 Y101.472 F18000.000
G1 F1800.000
M204 S1000
G1 X91.457 Y105.118 E0.22306
G1 X90.726 Y105.118 E0.03164
